X:1177
T:The Humors of Westport
M:C|
L:1/8
R:Reel
B:O'Neill's 1177
N:collected by J. O'Neill
Z:transcribed by Trish O'Neil, oneil@cybernw.com
K:F
f2gfe fcAc|f2gfe fagf|fage fcAc|TBAGA Bcde|
f2gfe fcAc|f2gfe fagb|afge fcAc|TBAGA BdcB||
AFcF dFcF|AFcF BdcB|AFcF dFcF|TBAGA BdcB|
AFcF dFcF|AFcF BdcB|Acfa gefc|TBAGA Bcde||
